svg/u1f49e.svg

<svg viewBox="0 0 128 128" xmlns="http://www.w3.org/2000/svg">
  <g>
    <linearGradient id="SVGID_1_" gradientUnits="userSpaceOnUse" x1="76.9964" x2="120.0655" y1="74.7883" y2="94.105">
      <stop offset="0.1093" stop-color="#FFBFD6" stop-opacity="0.0378"/>
      <stop offset="0.6002" stop-color="#FFBFD6"/>
    </linearGradient>
    <path d="M117.99,47.08c-3.02,9.38-5.29,29.06-36.93,35.58l-24.61,30.85 c64.67-2.57,65.79-47.27,64.49-66.05C120.81,45.78,118.51,45.47,117.99,47.08z" fill="url(#SVGID_1_)"/>
    <linearGradient id="SVGID_2_" gradientUnits="userSpaceOnUse" x1="75.8326" x2="8.2228" y1="24.6545" y2="32.6362">
      <stop offset="0.1178" stop-color="#FFBFD6" stop-opacity="0.0378"/>
      <stop offset="0.5329" stop-color="#FFBFD6"/>
    </linearGradient>
    <path d="M77.1,12.12c0,0-15.99-7.03-41.05,4.02c-15.9,7.01-23.19,20.3-24.93,31.72 c-0.17,1.1,0.91,1.46,2.03,0c5.79-7.53,12.4-14.5,29.04-18.04c22.47-5.31,34.91,3.04,34.91,3.04V12.12z" fill="url(#SVGID_2_)"/>
    <g>
      <path d="M65.19,49.14c-15.05,0-20.58,15.38-20.58,15.38s-5.46-15.38-20.62-15.38 c-11.39,0-24.38,9.03-19.58,29.55c4.8,20.52,40.23,46.09,40.23,46.09s35.31-25.57,40.11-46.09 C89.55,58.17,77.49,49.14,65.19,49.14z" fill="#EF5592"/>
      <g>
        <path d="M21.66,50.67c11.82,0,17.69,12.7,19.58,17.85c0.27,0.73,1.29,0.76,1.6,0.04l1.73-4.04 c-2.44-7.79-9.14-15.38-20.59-15.38c-4.74,0-9.75,1.57-13.64,4.87C13.78,51.75,17.82,50.67,21.66,50.67z" fill="#DA2E75"/>
        <path d="M65.19,49.14c-3.64,0-6.71,1.06-9.29,2.65c1.81-0.7,3.82-1.12,6.05-1.12 c11.14,0,21.1,8.44,16.61,27.96c-3.86,16.76-26.43,37.09-33.32,44.85c-0.44,0.49-0.59,1.29-0.59,1.29s35.31-25.57,40.11-46.09 C89.55,58.17,76.58,49.14,65.19,49.14z" fill="#DA2E75"/>
      </g>
      <path d="M12.31,60.04c2.58-3.22,7.18-5.87,11.08-2.81c2.11,1.65,1.19,5.05-0.7,6.48 c-2.75,2.09-5.14,3.35-6.81,6.62c-1.01,1.97-1.61,4.11-1.92,6.31c-0.12,0.86-1.26,1.08-1.68,0.32 C9.38,71.81,8.56,64.73,12.31,60.04z" fill="#F386AB"/>
      <path d="M53.62,66.8c-1.21,0-2.06-1.17-1.62-2.29c0.82-2.07,1.88-4.08,3.15-5.87 c1.88-2.64,5.46-4.18,7.73-2.58c2.32,1.64,2.02,4.91,0.39,6.49C59.77,65.93,55.36,66.8,53.62,66.8z" fill="#F386AB"/>
    </g>
    <g>
      <path d="M109.21,5.22c-11.23,0-15.36,11.48-15.36,11.48S89.78,5.22,78.47,5.22 c-8.5,0-18.2,6.74-14.61,22.05c3.58,15.31,30.03,34.4,30.03,34.4s26.35-19.08,29.93-34.39C127.4,11.96,118.4,5.22,109.21,5.22z" fill="#EF5592"/>
      <g>
        <path d="M76.73,6.37c8.82,0,13.2,9.48,14.61,13.32c0.2,0.55,0.97,0.57,1.2,0.03l1.29-3.02 c-1.82-5.82-6.82-11.48-15.37-11.48c-3.54,0-7.27,1.17-10.18,3.63C70.85,7.17,73.86,6.37,76.73,6.37z" fill="#DA2E75"/>
        <path d="M109.21,5.22c-2.71,0-5.01,0.79-6.94,1.98c1.35-0.52,2.85-0.83,4.51-0.83 c8.31,0,15.75,6.3,12.39,20.87C116.3,39.74,99.46,54.92,94.32,60.7c-0.33,0.37-0.44,0.97-0.44,0.97s26.35-19.08,29.93-34.39 C127.4,11.96,117.71,5.22,109.21,5.22z" fill="#DA2E75"/>
      </g>
      <path d="M69.76,13.35c1.92-2.4,5.36-4.38,8.27-2.1c1.57,1.24,0.89,3.77-0.52,4.84 c-2.05,1.56-3.84,2.5-5.08,4.94c-0.75,1.47-1.2,3.07-1.43,4.71c-0.09,0.65-0.94,0.8-1.26,0.24 C67.57,22.13,66.95,16.85,69.76,13.35z" fill="#F386AB"/>
      <path d="M100.58,18.4c-0.9,0-1.54-0.87-1.21-1.71c0.61-1.55,1.4-3.05,2.35-4.38 c1.4-1.97,4.08-3.12,5.77-1.93c1.73,1.22,1.51,3.66,0.29,4.84C105.17,17.75,101.88,18.4,100.58,18.4z" fill="#F386AB"/>
    </g>
  </g>
</svg>

<svg viewBox="0 0 128 128" xmlns="http://www.w3.org/2000/svg">
  <defs>
    <linearGradient id="SVGID_1_" gradientUnits="userSpaceOnUse" x1="76.9964" x2="120.0655" y1="74.7883" y2="94.105">
      <stop offset="0.1093" stop-color="#FFBFD6" stop-opacity="0.0378"/>
      <stop offset="0.6002" stop-color="#FFBFD6"/>
    </linearGradient>
    <linearGradient id="SVGID_2_" gradientUnits="userSpaceOnUse" x1="75.8326" x2="8.2228" y1="24.6545" y2="32.6362">
      <stop offset="0.1178" stop-color="#FFBFD6" stop-opacity="0.0378"/>
      <stop offset="0.5329" stop-color="#FFBFD6"/>
    </linearGradient>
  </defs>
  <path d="M117.99,47.08 C114.97,56.46 112.7,76.14 81.06,82.66 L56.45,113.51 C121.12,110.94 122.24,66.24 120.94,47.46 C120.81,45.78 118.51,45.47 117.99,47.08 Z" fill="url(#SVGID_1_)"/>
  <path d="M77.1,12.12 C77.1,12.12 61.11,5.09 36.05,16.14 C20.15,23.15 12.86,36.44 11.12,47.86 C10.95,48.96 12.03,49.32 13.15,47.86 C18.94,40.33 25.55,33.36 42.19,29.82 C64.66,24.51 77.1,32.86 77.1,32.86 L77.1,12.12 Z" fill="url(#SVGID_2_)"/>
  <path d="M65.19,49.14 C50.14,49.14 44.61,64.52 44.61,64.52 C44.61,64.52 39.15,49.14 23.99,49.14 C12.6,49.14 -0.39,58.17 4.41,78.69 C9.21,99.21 44.64,124.78 44.64,124.78 C44.64,124.78 79.95,99.21 84.75,78.69 C89.55,58.17 77.49,49.14 65.19,49.14 Z" fill="#EF5592"/>
  <path d="M21.66,50.67 C33.48,50.67 39.35,63.37 41.24,68.52 C41.51,69.25 42.53,69.28 42.84,68.56 L44.57,64.52 C42.13,56.73 35.43,49.14 23.98,49.14 C19.24,49.14 14.23,50.71 10.34,54.01 C13.78,51.75 17.82,50.67 21.66,50.67 Z" fill="#DA2E75"/>
  <path d="M65.19,49.14 C61.55,49.14 58.48,50.2 55.9,51.79 C57.71,51.09 59.72,50.67 61.95,50.67 C73.09,50.67 83.05,59.11 78.56,78.63 C74.7,95.39 52.13,115.72 45.24,123.48 C44.8,123.97 44.65,124.77 44.65,124.77 C44.65,124.77 79.96,99.2 84.76,78.68 C89.55,58.17 76.58,49.14 65.19,49.14 Z" fill="#DA2E75"/>
  <path d="M12.31,60.04 C14.89,56.82 19.49,54.17 23.39,57.23 C25.5,58.88 24.58,62.28 22.69,63.71 C19.94,65.8 17.55,67.06 15.88,70.33 C14.87,72.3 14.27,74.44 13.96,76.64 C13.84,77.5 12.7,77.72 12.28,76.96 C9.38,71.81 8.56,64.73 12.31,60.04 Z" fill="#F386AB"/>
  <path d="M53.62,66.8 C52.41,66.8 51.56,65.63 52,64.51 C52.82,62.44 53.88,60.43 55.15,58.64 C57.03,56 60.61,54.46 62.88,56.06 C65.2,57.7 64.9,60.97 63.27,62.55 C59.77,65.93 55.36,66.8 53.62,66.8 Z" fill="#F386AB"/>
  <path d="M109.21,5.22 C97.98,5.22 93.85,16.7 93.85,16.7 C93.85,16.7 89.78,5.22 78.47,5.22 C69.97,5.22 60.27,11.96 63.86,27.27 C67.44,42.58 93.89,61.67 93.89,61.67 C93.89,61.67 120.24,42.59 123.82,27.28 C127.4,11.96 118.4,5.22 109.21,5.22 Z" fill="#EF5592"/>
  <path d="M76.73,6.37 C85.55,6.37 89.93,15.85 91.34,19.69 C91.54,20.24 92.31,20.26 92.54,19.72 L93.83,16.7 C92.01,10.88 87.01,5.22 78.46,5.22 C74.92,5.22 71.19,6.39 68.28,8.85 C70.85,7.17 73.86,6.37 76.73,6.37 Z" fill="#DA2E75"/>
  <path d="M109.21,5.22 C106.5,5.22 104.2,6.01 102.27,7.2 C103.62,6.68 105.12,6.37 106.78,6.37 C115.09,6.37 122.53,12.67 119.17,27.24 C116.3,39.74 99.46,54.92 94.32,60.7 C93.99,61.07 93.88,61.67 93.88,61.67 C93.88,61.67 120.23,42.59 123.81,27.28 C127.4,11.96 117.71,5.22 109.21,5.22 Z" fill="#DA2E75"/>
  <path d="M69.76,13.35 C71.68,10.95 75.12,8.97 78.03,11.25 C79.6,12.49 78.92,15.02 77.51,16.09 C75.46,17.65 73.67,18.59 72.43,21.03 C71.68,22.5 71.23,24.1 71,25.74 C70.91,26.39 70.06,26.54 69.74,25.98 C67.57,22.13 66.95,16.85 69.76,13.35 Z" fill="#F386AB"/>
  <path d="M100.58,18.4 C99.68,18.4 99.04,17.53 99.37,16.69 C99.98,15.14 100.77,13.64 101.72,12.31 C103.12,10.34 105.8,9.19 107.49,10.38 C109.22,11.6 109,14.04 107.78,15.22 C105.17,17.75 101.88,18.4 100.58,18.4 Z" fill="#F386AB"/>
</svg>
